X:1
T:Title
%%score { ( 1 3 ) | ( 2 4 ) }
L:1/8
Q:1/4=86
M:2/4
K:F
V:1 treble nm="Grand Piano"
V:3 treble 
V:2 bass 
V:4 bass 
V:1
 [CA][CA] [B,G][B,G] | [A,F][A,F] [A,C]2 | DF F2 | z G z2 | [CA][CA] [B,G][B,G] | [A,F]F CC | %6
w: Chas.~H.~Gabriel * * *||||||
 DF [CE]G | [A,F]4 | Ac cA | [DB]2 [Fd]2 | dc c2 |[M:9/16] c=B/-B/[CEc]-[CEc]/[DE_B] | %12
w: ||||||
[M:2/4] AA GG | FF CC | D[DF] EG | F4 |] %16
w: ||||
V:2
 F,,C, E,C, | F,,C, F,C, | [B,,B,][D,D] .[F,D]2 | [C,C].[E,E] [CE]D | F,,C, E,C, | %5
 F,,[C,A,] [F,A,][C,A,] | [B,,F,]-[B,,F,D] z B, | [F,,C,]4 | [F,CF][F,A,F] [F,A,F][F,C_E] | %9
 [B,,B,]2 [B,,B,]2 | [F,B,F][F,A,F] [F,A,F]2 |[M:9/16] [G,F][G,DF]/-[G,DF]/[K:bass]C,-C,/C, | %12
[M:2/4] [F,CF][F,CF] [F,B,C][F,B,C] | [F,A,C][F,A,C] [F,A,][F,A,] | %14
 [B,,F,B,][B,,B,] [C,G,C][C,B,C] | [F,A,C]4 |] %16
V:3
 x4 | x4 | x4 | .E>G, GB | x4 | x4 | x4 | x4 | x4 | x4 | x4 |[M:9/16] x9/2 |[M:2/4] x4 | x4 | x4 | %15
 x4 |] %16
V:4
 x4 | x4 | x4 | x4 | x4 | x4 | .B,2 C,2 | x4 | x4 | x4 | x4 |[M:9/16] x2[K:bass] x5/2 |[M:2/4] x4 | %13
 x4 | x4 | x4 |] %16

